app/src/main/assets/symbols/amenity/firestation.svg

<?xml version="1.0" encoding="UTF-8" standalone="no"?>
<svg
   xmlns:dc="http://purl.org/dc/elements/1.1/"
   xmlns:cc="http://creativecommons.org/ns#"
   xmlns:rdf="http://www.w3.org/1999/02/22-rdf-syntax-ns#"
   xmlns:svg="http://www.w3.org/2000/svg"
   xmlns="http://www.w3.org/2000/svg"
   version="1.1"
   width="16"
   height="16"
   viewBox="0 0 16 16"
   id="svg2">
  <metadata id="metadata8">
    <rdf:RDF>
      <cc:Work rdf:about="">
        <dc:format>image/svg+xml</dc:format>
        <dc:type rdf:resource="http://purl.org/dc/dcmitype/StillImage"/>
        <dc:title/>
      </cc:Work>
    </rdf:RDF>
  </metadata>
  <defs id="defs6"/>
  <rect width="16" height="16" x="0" y="0" id="canvas" style="fill:none;stroke:none;visibility:hidden"/>
  <path d="M 7,0 C 3.424161,1.2414283 2,5 2,8 2,11 3.744933,13.259763 6,14 4,10.741416 4,8 7,6 6.495078,7.352818 7,10 8,11 8.431455,10.599243 9,9.575273 9,9 c 2,2 0.562898,3.633261 0,5 1.08818,-0.559102 3,-2 3,-5 C 12,6 10,5 10,2 8.616484,2.5992431 8,4 8,5 7.047939,4.4434404 6,2.2464256 7,0 z" id="fire-station" style="fill:#734a08;fill-opacity:1;stroke:none" transform="translate(1,1)"/>
</svg>

<?xml version="1.0" encoding="UTF-8"?>
<svg version="1.1" viewBox="0 0 16 16" xmlns="http://www.w3.org/2000/svg" xmlns:cc="http://creativecommons.org/ns#" xmlns:dc="http://purl.org/dc/elements/1.1/" xmlns:rdf="http://www.w3.org/1999/02/22-rdf-syntax-ns#">
<metadata>
<rdf:RDF>
<cc:Work rdf:about="">
<dc:format>image/svg+xml</dc:format>
<dc:type rdf:resource="http://purl.org/dc/dcmitype/StillImage"/>
<dc:title/>
</cc:Work>
</rdf:RDF>
</metadata>
<rect width="16" height="16" fill="none" visibility="hidden"/>
<path transform="translate(1,1)" d="m7 0c-3.5758 1.2414-5 5-5 8s1.7449 5.2598 4 6c-2-3.2586-2-6 1-8-0.50492 1.3528 0 4 1 5 0.43146-0.40076 1-1.4247 1-2 2 2 0.5629 3.6333 0 5 1.0882-0.5591 3-2 3-5s-2-4-2-7c-1.3835 0.59924-2 2-2 3-0.95206-0.55656-2-2.7536-1-5z" fill="#734a08"/>
</svg>
